X:1
T:Title
%%score { 1 | ( 2 3 ) }
L:1/8
M:4/4
K:Ab
V:1 treble nm="Grand Piano"
V:2 bass 
V:3 bass 
V:1
 z4 z2[Q:1/4=100] [CE]2 | [Ec]2 [DB]>[CA] [FA]2 [EG]>[DF] | [DF]2 [CE]4 [CE]2 | d2 BG A2 c>c | %4
 B6 E2 | [Ec]2 [DB]>[CA] [A,FA]2 [A,EG]>[A,DF] | [A,DF]2 [A,CE]4 [CA]c | e2 cB G2 FG | %8
[M:3/4] [CA]6 |[M:1/4] [Ec]2 |[M:4/4] B2 B>B G2 FE | [CA] [Ec]3- [Ec]2 [Ec]2 | %12
 [Ed]2 [EG]>[EG] [EA]2 [EB][Ec] | B6 e2 | e2 c>c cedc | [Fc] [FB]3- [FB]2 [Fd]2 | d2 B>A G2 FG | %17
[M:3/4] [CA]6 |] %18
V:2
 z4 z2 [A,,A,]2 | [A,,A,]2 [A,,A,]>[A,,A,] [D,A,]2 [D,A,]>[D,A,] | [A,,A,]2 [A,,A,]4 [A,,A,]2 | %3
 [E,G,E]2 [E,G,E][E,B,E] [E,CE]2 [D,A,E]>[E,A,E] | [E,G,E]6 [E,G,]2 | %5
 [A,,A,]2 [A,,A,]>[A,,A,] D,2 D,>D, | z4 z2 A,2 | [A,CE]2 [A,E][A,CE] [E,B,E]2 [E,B,D][E,B,D] | %8
[M:3/4] [A,,A,]6 |[M:1/4] [A,,A,]2 |[M:4/4] [E,G,D]2 [E,G,D]>[E,G,D] [E,B,D]2 [E,A,D][E,G,D] | %11
 [A,,A,] [A,,A,]3- [A,,A,]2 [A,,A,]2 | [E,G,]2 [D,B,]>[D,B,] [C,A,]2 [B,,G,][A,,A,] | %13
 [E,G,E]6[K:treble] [G,B,E]2 | z4 .E2 z2 | [D,D] [D,D]3- [D,D]2 [D,B,]2 | %16
 [E,B,E]2 [E,G,D]>[E,A,C] [E,B,D]2 [E,B,D][E,B,D] |[M:3/4] [A,,A,]6 |] %18
V:3
 x8 | x8 | x8 | x8 | x8 | x8 | A,,2 A,,4 z E | x8 |[M:3/4] x6 |[M:1/4] x2 |[M:4/4] x8 | x8 | x8 | %13
 x6[K:treble] x2 | [A,CE]2 [A,EA]>[A,EA] [A,A]-[A,CA][A,FA][A,EA] | x8 | x8 |[M:3/4] x6 |] %18

